X:1
T:21
T:21
T:Études enfantines op. 37
T:Henry Lemoine
C:Henry Lemoine
%%score { ( 1 4 ) | ( 2 3 ) }
L:1/8
Q:1/4=142
M:6/8
K:A
V:1 treble nm="Piano" snm="Pno."
V:4 treble 
V:2 treble 
V:3 treble 
V:1
!p!"^Andantino grazioso""_legato" (!3!E^D | !1!E!3!AG !1!A!3!c!1!^B | %2
!<(! !2!c!3!e^d !1!e)(!4!a!<)!g |!>(! bag !4!a!1!e!>)!!2!c | !4!e!3!d!1!B !2!G)(!1!B!2!c | %5
!p! dcd !1!Bed |"_cresc." c^Bc A)(ce |!mf!"_poco rall." !3!^dcd !1!Bgf) | (!>!!3!f3 .e) |: %9
"^in tempo"!p! (!3!e^d | fe=d !1!B!3!e^d | fec A)(!3!e^d | fe=d B!3!e^d | fec A)(!3!e^d | %14
 !1!e!4!ag bag |"_poco rall."!<(! !1!^e!3!f!2!=e d!3!c!<)!B |!>(! A!3!GF EF!>)!G | %17
 !>!B3 .A)!fine! ::!f! (!3!AG | !1!A!3!d!4!e !5!fed | cB!2!^A !1!B) (!5!ed | cde =ABc | %22
 edB A) (A^G | !1!A!3!d!4!e !5!fed | cB!2!^A !1!B) (!5!ed |!<(! cA_B !1!=B=c^c!<)! | !>!e3 .d) :: %27
 (cd | e3) z (fe | d) z2 z (cd |"_cresc." e3) z (fe | d) z2 z (!3!d!4!e |!mf! f) (!2!c!3!d !4!efe | %33
 !3!d!2!c!3!d z) (!5!fe) |!>(! z !5!ed cBc!>)! | d3 z!D.C.! :| %36
V:2
 z2 | z2 z [CE]3 | z2 z [CE]3 | z2 z [CE]3 | z2 z [DE]3 | z2 z [DE]3 | z2 z [CE]3 | %7
 z2 z !3!!1![^DA]3 | (!>!A3 .G) |: z2 |[K:bass] z2 z [DE]3 | z2 z [CE]3 | z2 z [DE]3 | z2 z [CE]3 | %14
 z2 z !4!!1![E,A,]3 | z2 (^A, B,!2!CD | !2!B,3 !1!D3 | !>!D3 .C) :: z2 | [D,F,A,]6 | [D,=G,B,]6 | %21
 [D,=G,A,]6 | [D,F,A,]6 | [D,F,A,]6 | !2!!1![=G,B,]3- [G,B,] z2 |[K:treble] (!2!E3 =G3) | %26
 (!>!=G3 .F) :: z2 | !5![C=G]6 | [DF]6 | !5![C=G]6 | [DF]6 | !3!C3 !1!F3- | F3 !1!E3 | %34
 !2![DF]3 =G3 | F3 z :| %36
V:3
 x2 | !5!A,6 | !5!A,6 | !5!A,6 | !4!B,6 | !5!G,6 | !5!A,6 | !5!B,6 | !4!E3- E |: x2 | %10
[K:bass] !5!G,6 | !5!A,6 | !5!G,6 | !5!A,6 | !5!C,6 | !5!D,3- D, z2 | !5!E,6 | !3!A,3- A, :: x2 | %19
 x6 | x6 | x6 | x6 | x6 | x6 |[K:treble] !5!A,6 | !3!D3- D :: x2 | x6 | x6 | x6 | x6 | !5!^A,6 | %33
 !4!B,3 [=G,D]3 | =A,3 [A,E]3 | D3 z :| %36
V:4
 x2 | x6 | x6 | x6 | x6 | x6 | x6 | x6 | x4 |: x2 | x6 | x6 | x6 | x6 | x6 | x6 | x6 | x4 :: x2 | %19
 A6 | z6 | x6 | x6 | A6 | z6 | x6 | x4 :: x2 | z (!1!A!2!^G !1!A3) | z (!1!A!2!^G !1!A3) | %30
 z (!1!A!2!^G !1!A3) | z (!1!A!2!^G !1!A3) | x6 | x3 B3 | A6- | A3 z :| %36

